X:53238
F:http://www.vwml.org/record/HAM/5/32/38%%VWML:HAM-5-32-38-0
T:All alone and so lonely
T:cruel Mother, The
S:Mrs Marina Russell, Upwey coll. HED Hammond
O:England
A:Dorset
N:Transcribed from HAM-02-239
F:HAM-05-32-38.abc
Z:EFDSS;PJHeadford
M:C
L:1/8
Q:2/4=50
K:G
G2|A Ac2B BG2|ABc2B4|A3B c2B> A|(A2G2) E2F2|
w:|||All a-lone and so lone-*ly
G2F2 E2DC|D2D2 D2"^*"D> D&x6C> D|E2F E D2D2|E4 HA2||
w:|***And tis down by the green-wood side-oh!
W:Transcribed from HAM-02-239. The alternative note at * is more fully decribed in HAM-05-32-38. rtf
